;FLAVOR:Marlin
;TIME:384
;Filament used: 0.223207m
;Layer height: 0.16
;MINX:43.947
;MINY:42.122
;MINZ:0.24
;MAXX:76.039
;MAXY:77.87
;MAXZ:4.88
;Generated with Cura_SteamEngine 4.5.0
M140 S60
;M105
;M190 S60
M104 S210
M105
M109 S210
M82 ;absolute extrusion mode
G21;(metric values)
G90;(absolute positioning)
M82;(set extruder to absolute mode)
M107;(start with the fan off)
G28;(Home the printer)
G92 E0;(Reset the extruder to 0)
G0 Z5 E5 F500;(Move up and prime the nozzle)
G0 X-1 Z0;(Move outside the printable area)
G1 Y60 E8 F500;(Draw a priming/wiping line to the rear)
G1 X-1;(Move a little closer to the print area)
G1 Y10 E16 F500;(draw more priming/wiping)
G1 E15 F250;(Small retract)
G92 E0;(Zero the extruder)
G92 E0
G92 E0
G1 F5100 E-6.5
;LAYER_COUNT:30
;LAYER:0
M107
G0 F4320 X47.443 Y45.836 Z0.24
;TYPE:SKIRT
G1 F5100 E0.04158
G1 F1800 X47.921 Y45.371 E0.07085
G1 X48.542 Y44.823 E0.10721
G1 X49.115 Y44.402 E0.13843
G1 X49.671 Y44.028 E0.16785
G1 X50.38 Y43.599 E0.20423
G1 X51.045 Y43.276 E0.23669
G1 X51.658 Y43.01 E0.26603
G1 X52.432 Y42.717 E0.30236
G1 X53.083 Y42.535 E0.33204
G1 X53.729 Y42.381 E0.36119
G1 X54.543 Y42.228 E0.39756
G1 X55.287 Y42.158 E0.43037
G1 X55.961 Y42.124 E0.45999
G1 X56.789 Y42.122 E0.49635
G1 X57.465 Y42.18 E0.52613
G1 X58.124 Y42.263 E0.5553
G1 X58.94 Y42.406 E0.59167
G1 X59.639 Y42.595 E0.62346
G1 X59.988 Y42.699 E0.63945
G1 X60.643 Y42.518 E0.66928
G1 X61.286 Y42.368 E0.69827
G1 X62.101 Y42.219 E0.73464
G1 X62.847 Y42.153 E0.76752
G1 X63.531 Y42.122 E0.79758
G1 X64.359 Y42.124 E0.83393
G1 X65.06 Y42.189 E0.86484
G1 X65.716 Y42.277 E0.8939
G1 X66.53 Y42.427 E0.93024
G1 X67.206 Y42.614 E0.96103
G1 X67.836 Y42.817 E0.99009
G1 X68.612 Y43.109 E1.02649
G1 X69.264 Y43.425 E1.0583
G1 X69.858 Y43.744 E1.08791
G1 X70.568 Y44.171 E1.12428
G1 X71.143 Y44.591 E1.15554
G1 X71.663 Y45.005 E1.18472
G1 X72.285 Y45.551 E1.22106
G1 X72.782 Y46.073 E1.2527
G1 X73.223 Y46.578 E1.28214
G1 X73.737 Y47.228 E1.31852
G1 X74.129 Y47.826 E1.34991
G1 X74.472 Y48.401 E1.37931
G1 X74.861 Y49.132 E1.41566
G1 X75.129 Y49.763 E1.44576
G1 X75.363 Y50.382 E1.47481
G1 X75.618 Y51.17 E1.51118
G1 X75.779 Y51.885 E1.54335
G1 X75.9 Y52.552 E1.57311
G1 X76.009 Y53.373 E1.60947
G1 X76.038 Y54.07 E1.6401
G1 X76.039 Y54.736 E1.66934
G1 X76 Y55.563 E1.70569
G1 X75.899 Y56.292 E1.738
G1 X75.78 Y56.943 E1.76706
G1 X75.592 Y57.749 E1.80339
G1 X75.373 Y58.415 E1.83417
G1 X75.135 Y59.049 E1.8639
G1 X74.806 Y59.81 E1.9003
G1 X74.463 Y60.443 E1.93191
G1 X74.121 Y61.014 E1.96113
G1 X73.661 Y61.703 E1.9975
G1 X73.22 Y62.251 E2.02839
G1 X72.783 Y62.751 E2.05754
G1 X72.209 Y63.348 E2.0939
G1 X71.664 Y63.82 E2.12555
G1 X71.141 Y64.236 E2.15489
G1 X70.805 Y64.478 E2.17307
G1 X70.803 Y66.87 E2.27809
G1 X70.78 Y67.671 E2.31327
G1 X70.71 Y68.497 E2.34966
G1 X70.545 Y69.382 E2.38919
G1 X70.426 Y69.874 E2.41141
G1 X70.192 Y70.669 E2.4478
G1 X69.737 Y71.74 E2.49888
G1 X69.502 Y72.203 E2.52168
G1 X69.092 Y72.923 E2.55806
G1 X68.398 Y73.865 E2.60942
G1 X68.066 Y74.257 E2.63198
G1 X67.501 Y74.863 E2.66835
G1 X66.596 Y75.629 E2.72041
G1 X66.175 Y75.938 E2.74333
G1 X65.484 Y76.395 E2.77971
G1 X64.453 Y76.918 E2.83046
G1 X63.987 Y77.116 E2.85269
G1 X63.21 Y77.402 E2.88904
G1 X62.093 Y77.674 E2.93951
G1 X61.578 Y77.763 E2.96246
G1 X60.756 Y77.864 E2.99882
G1 X59.568 Y77.87 E3.05098
G1 X59.053 Y77.837 E3.07363
G1 X58.23 Y77.745 E3.10999
G1 X57.1 Y77.482 E3.16093
G1 X56.608 Y77.332 E3.18351
G1 X55.828 Y77.053 E3.21988
G1 X54.784 Y76.534 E3.27107
G1 X54.337 Y76.273 E3.29379
G1 X53.642 Y75.822 E3.33017
G1 X52.74 Y75.072 E3.38167
G1 X52.369 Y74.718 E3.40418
G1 X51.798 Y74.118 E3.44055
G1 X51.107 Y73.2 E3.49099
G1 X50.825 Y72.768 E3.51364
G1 X50.407 Y72.053 E3.55
G1 X49.934 Y70.974 E3.60173
G1 X49.759 Y70.486 E3.62449
G1 X49.517 Y69.694 E3.66084
G1 X49.31 Y68.564 E3.71128
G1 X49.253 Y68.065 E3.73333
G1 X49.198 Y67.092 E3.77612
G1 X49.198 Y64.478 E3.89088
G1 X48.637 Y64.076 E3.92118
G1 X48.111 Y63.623 E3.95166
G1 X47.616 Y63.161 E3.98139
G1 X47.038 Y62.568 E4.01774
G1 X46.578 Y61.999 E4.04986
G1 X46.185 Y61.469 E4.07883
G1 X45.724 Y60.781 E4.11519
G1 X45.393 Y60.176 E4.14547
G1 X45.088 Y59.562 E4.17557
G1 X44.756 Y58.803 E4.21194
G1 X44.515 Y58.078 E4.24548
G1 X44.337 Y57.448 E4.27422
G1 X44.151 Y56.641 E4.31058
G1 X44.057 Y55.973 E4.3402
G1 X43.99 Y55.306 E4.36963
G1 X43.947 Y54.478 E4.40603
G1 X43.972 Y53.791 E4.43621
G1 X44.023 Y53.127 E4.46545
G1 X44.126 Y52.305 E4.50182
G1 X44.288 Y51.571 E4.53482
G1 X44.461 Y50.923 E4.56427
G1 X44.713 Y50.134 E4.60063
G1 X44.987 Y49.485 E4.63156
G1 X45.272 Y48.879 E4.66096
G1 X45.66 Y48.147 E4.69733
G1 X46.063 Y47.531 E4.72965
G1 X46.453 Y46.987 E4.75904
G1 X46.967 Y46.338 E4.79539
G1 X47.027 Y46.274 E4.79924
G0 F1620 X47.443 Y45.836
G0 F4320 X47.75 Y46.151
G1 F1800 X48.228 Y45.686 E4.82851
G1 X48.833 Y45.153 E4.86391
G1 X49.361 Y44.767 E4.89263
G1 X49.917 Y44.393 E4.92205
G1 X50.608 Y43.976 E4.95748
G1 X51.22 Y43.68 E4.98733
G1 X51.833 Y43.414 E5.01666
G1 X52.588 Y43.13 E5.05208
G1 X53.185 Y42.963 E5.0793
G1 X53.831 Y42.809 E5.10845
G1 X54.624 Y42.661 E5.14387
G1 X55.309 Y42.597 E5.17407
G1 X55.983 Y42.563 E5.2037
G1 X56.79 Y42.563 E5.23913
G1 X57.41 Y42.617 E5.26645
G1 X58.069 Y42.7 E5.29562
G1 X58.864 Y42.84 E5.33106
G1 X59.506 Y43.015 E5.36027
G1 X59.99 Y43.168 E5.38256
G1 X60.743 Y42.947 E5.41701
G1 X61.386 Y42.797 E5.446
G1 X62.179 Y42.653 E5.48138
G1 X62.866 Y42.592 E5.51166
G1 X63.55 Y42.561 E5.54172
G1 X64.357 Y42.565 E5.57715
G1 X65.001 Y42.625 E5.60555
G1 X65.657 Y42.713 E5.63461
G1 X66.451 Y42.86 E5.67006
G1 X67.071 Y43.033 E5.69832
G1 X67.701 Y43.236 E5.72738
G1 X68.456 Y43.521 E5.76281
G1 X69.056 Y43.813 E5.79211
G1 X69.65 Y44.132 E5.82171
G1 X70.341 Y44.548 E5.85712
G1 X70.869 Y44.935 E5.88586
G1 X71.389 Y45.349 E5.91504
G1 X71.995 Y45.882 E5.95047
G1 X72.45 Y46.363 E5.97954
G1 X72.891 Y46.868 E6.00898
G1 X73.391 Y47.501 E6.04439
G1 X73.751 Y48.052 E6.07329
G1 X74.094 Y48.627 E6.10268
G1 X74.472 Y49.339 E6.13807
G1 X74.717 Y49.919 E6.16572
G1 X74.951 Y50.538 E6.19477
G1 X75.199 Y51.305 E6.23016
G1 X75.346 Y51.963 E6.25976
G1 X75.467 Y52.63 E6.28952
G1 X75.572 Y53.43 E6.32495
G1 X75.598 Y54.071 E6.35311
G1 X75.599 Y54.737 E6.38235
G1 X75.56 Y55.543 E6.41778
G1 X75.466 Y56.213 E6.44748
G1 X75.347 Y56.864 E6.47654
G1 X75.163 Y57.649 E6.51193
G1 X74.961 Y58.261 E6.54023
G1 X74.723 Y58.895 E6.56996
G1 X74.402 Y59.635 E6.60537
G1 X74.085 Y60.217 E6.63447
G1 X73.743 Y60.788 E6.66369
G1 X73.295 Y61.458 E6.69908
G1 X72.889 Y61.962 E6.72749
G1 X72.452 Y62.462 E6.75664
G1 X71.892 Y63.042 E6.79204
G1 X71.39 Y63.476 E6.82117
G1 X70.867 Y63.892 E6.85051
G1 X70.366 Y64.252 E6.8776
G1 X70.363 Y66.869 E6.99249
G1 X70.34 Y67.656 E7.02706
G1 X70.271 Y68.459 E7.06245
G1 X70.117 Y69.279 E7.09908
G1 X69.998 Y69.771 E7.1213
G1 X69.77 Y70.544 E7.15668
G1 X69.345 Y71.541 E7.20426
G1 X69.11 Y72.004 E7.22706
G1 X68.709 Y72.705 E7.26252
G1 X68.063 Y73.581 E7.3103
G1 X67.731 Y73.973 E7.33286
G1 X67.179 Y74.562 E7.3683
G1 X66.335 Y75.274 E7.41677
G1 X65.914 Y75.583 E7.4397
G1 X65.241 Y76.028 E7.47512
G1 X64.281 Y76.513 E7.52234
G1 X63.815 Y76.711 E7.54457
G1 X63.058 Y76.989 E7.57998
G1 X62.018 Y77.24 E7.62695
G1 X61.503 Y77.329 E7.64989
G1 X60.702 Y77.427 E7.68532
G1 X59.596 Y77.431 E7.73388
G1 X59.081 Y77.398 E7.75654
G1 X58.28 Y77.307 E7.79193
G1 X57.228 Y77.061 E7.83936
G1 X56.736 Y76.911 E7.86194
G1 X55.977 Y76.638 E7.89736
G1 X55.006 Y76.154 E7.94499
G1 X54.559 Y75.893 E7.96771
G1 X53.883 Y75.453 E8.00313
G1 X53.044 Y74.753 E8.0511
G1 X52.673 Y74.399 E8.07361
G1 X52.117 Y73.814 E8.10904
G1 X51.476 Y72.96 E8.15592
G1 X51.194 Y72.528 E8.17857
G1 X50.787 Y71.831 E8.21401
G1 X50.348 Y70.826 E8.26216
G1 X50.173 Y70.338 E8.28492
G1 X49.938 Y69.566 E8.32035
G1 X49.748 Y68.514 E8.36728
G1 X49.691 Y68.015 E8.38933
G1 X49.638 Y67.092 E8.42992
G1 X49.638 Y64.246 E8.55487
G1 X48.894 Y63.718 E8.59492
G1 X48.411 Y63.302 E8.62291
G1 X47.916 Y62.84 E8.65264
G1 X47.354 Y62.261 E8.68806
G1 X46.931 Y61.737 E8.71763
G1 X46.538 Y61.207 E8.7466
G1 X46.091 Y60.536 E8.78199
G1 X45.787 Y59.98 E8.80982
G1 X45.482 Y59.366 E8.83991
G1 X45.159 Y58.627 E8.87532
G1 X44.939 Y57.958 E8.90624
G1 X44.761 Y57.328 E8.93498
G1 X44.58 Y56.542 E8.97039
G1 X44.495 Y55.929 E8.99757
G1 X44.428 Y55.262 E9.027
G1 X44.387 Y54.456 E9.06243
G1 X44.411 Y53.825 E9.09015
G1 X44.462 Y53.161 E9.11939
G1 X44.563 Y52.36 E9.15483
G1 X44.713 Y51.684 E9.18523
G1 X44.886 Y51.036 E9.21468
G1 X45.133 Y50.268 E9.2501
G1 X45.385 Y49.672 E9.27851
G1 X45.67 Y49.066 E9.30791
G1 X46.049 Y48.354 E9.34332
G1 X46.42 Y47.787 E9.37307
G1 X46.81 Y47.243 E9.40246
G1 X47.312 Y46.612 E9.43786
G1 X47.334 Y46.589 E9.43925
G0 F1620 X47.75 Y46.151
G0 F4320 X48.057 Y46.467
G1 F1800 X48.535 Y46.002 E9.46853
G1 X49.124 Y45.484 E9.50297
G1 X49.606 Y45.132 E9.52917
G1 X50.162 Y44.758 E9.55859
G1 X50.835 Y44.354 E9.59305
G1 X51.395 Y44.083 E9.62037
G1 X52.008 Y43.817 E9.6497
G1 X52.743 Y43.542 E9.68416
G1 X53.287 Y43.391 E9.70894
G1 X53.933 Y43.237 E9.7381
G1 X54.705 Y43.094 E9.77257
G1 X55.331 Y43.037 E9.80017
G1 X56.005 Y43.003 E9.8298
G1 X56.79 Y43.003 E9.86426
G1 X57.355 Y43.053 E9.88916
G1 X58.014 Y43.136 E9.91832
G1 X58.787 Y43.274 E9.9528
G1 X59.373 Y43.434 E9.97947
G1 X60.003 Y43.633 E10.00847
G1 X60.843 Y43.375 E10.04705
G1 X61.486 Y43.225 E10.07604
G1 X62.258 Y43.086 E10.11048
G1 X62.886 Y43.032 E10.13815
G1 X63.57 Y43.001 E10.16821
G1 X64.355 Y43.005 E10.20268
G1 X64.943 Y43.061 E10.22861
G1 X65.599 Y43.149 E10.25767
G1 X66.37 Y43.293 E10.2921
G1 X66.937 Y43.452 E10.31796
G1 X67.567 Y43.655 E10.34701
G1 X68.3 Y43.933 E10.38143
G1 X68.848 Y44.2 E10.4082
G1 X69.442 Y44.519 E10.4378
G1 X70.113 Y44.925 E10.47223
G1 X70.595 Y45.279 E10.49848
G1 X71.115 Y45.693 E10.52767
G1 X71.703 Y46.212 E10.5621
G1 X72.119 Y46.652 E10.58868
G1 X72.56 Y47.157 E10.61812
G1 X73.045 Y47.774 E10.65257
G1 X73.373 Y48.277 E10.67894
G1 X73.716 Y48.852 E10.70833
G1 X74.083 Y49.546 E10.7428
G1 X74.306 Y50.074 E10.76796
G1 X74.54 Y50.693 E10.79702
G1 X74.779 Y51.44 E10.83145
G1 X74.913 Y52.042 E10.85853
G1 X75.034 Y52.709 E10.88829
G1 X75.135 Y53.487 E10.92273
G1 X75.158 Y54.071 E10.94839
G1 X75.159 Y54.737 E10.97763
G1 X75.12 Y55.521 E11.01209
G1 X75.033 Y56.134 E11.03928
G1 X74.914 Y56.785 E11.06833
G1 X74.734 Y57.548 E11.10275
G1 X74.549 Y58.106 E11.12856
G1 X74.311 Y58.74 E11.15829
G1 X73.998 Y59.46 E11.19276
G1 X73.708 Y59.991 E11.21932
G1 X73.366 Y60.562 E11.24854
G1 X72.929 Y61.213 E11.28297
G1 X72.558 Y61.672 E11.30888
G1 X72.121 Y62.172 E11.33803
G1 X71.575 Y62.736 E11.37249
G1 X71.116 Y63.131 E11.39908
G1 X70.593 Y63.547 E11.42842
G1 X69.955 Y64.004 E11.46287
G1 X69.926 Y64.021 E11.46435
G1 X69.923 Y66.869 E11.58939
G1 X69.9 Y67.64 E11.62325
G1 X69.832 Y68.421 E11.65767
G1 X69.689 Y69.175 E11.69136
G1 X69.57 Y69.667 E11.71359
G1 X69.347 Y70.419 E11.74802
G1 X68.952 Y71.342 E11.7921
G1 X68.717 Y71.805 E11.8149
G1 X68.327 Y72.486 E11.84935
G1 X67.727 Y73.296 E11.89361
G1 X67.395 Y73.688 E11.91616
G1 X66.858 Y74.261 E11.95064
G1 X66.075 Y74.919 E11.99554
G1 X65.654 Y75.228 E12.01847
G1 X64.999 Y75.66 E12.05292
G1 X64.109 Y76.108 E12.09666
G1 X63.643 Y76.306 E12.11889
G1 X62.906 Y76.575 E12.15333
G1 X61.943 Y76.807 E12.19682
G1 X61.428 Y76.896 E12.21977
G1 X60.649 Y76.99 E12.25422
G1 X59.625 Y76.992 E12.29917
G1 X59.11 Y76.959 E12.32183
G1 X58.33 Y76.869 E12.3563
G1 X57.356 Y76.64 E12.40023
G1 X56.864 Y76.49 E12.42281
G1 X56.127 Y76.224 E12.45721
G1 X55.227 Y75.774 E12.50139
G1 X54.78 Y75.513 E12.52411
G1 X54.124 Y75.084 E12.55853
G1 X53.347 Y74.435 E12.60297
G1 X52.976 Y74.081 E12.62549
G1 X52.437 Y73.511 E12.65993
G1 X51.844 Y72.719 E12.70337
G1 X51.562 Y72.287 E12.72602
G1 X51.167 Y71.609 E12.76047
G1 X50.762 Y70.677 E12.80508
G1 X50.587 Y70.189 E12.82784
G1 X50.36 Y69.438 E12.86229
G1 X50.185 Y68.464 E12.90573
G1 X50.128 Y67.965 E12.92778
G1 X50.078 Y67.092 E12.96617
G1 X50.078 Y64.006 E13.10166
G1 X49.151 Y63.361 E13.15124
G1 X48.711 Y62.98 E13.17679
G1 X48.216 Y62.518 E13.20652
G1 X47.671 Y61.954 E13.24095
G1 X47.285 Y61.475 E13.26796
G1 X46.892 Y60.945 E13.29693
G1 X46.457 Y60.292 E13.33138
G1 X46.181 Y59.785 E13.35672
G1 X45.876 Y59.171 E13.38682
G1 X45.563 Y58.451 E13.42129
G1 X45.362 Y57.839 E13.44957
G1 X45.184 Y57.209 E13.47831
G1 X45.009 Y56.444 E13.51276
G1 X44.933 Y55.885 E13.53753
G1 X44.866 Y55.218 E13.56696
G1 X44.827 Y54.434 E13.60143
G1 X44.85 Y53.858 E13.62673
G1 X44.901 Y53.194 E13.65597
G1 X45 Y52.416 E13.6904
G1 X45.139 Y51.798 E13.71821
G1 X45.312 Y51.15 E13.74766
G1 X45.552 Y50.403 E13.78211
G1 X45.783 Y49.859 E13.80806
G1 X46.068 Y49.253 E13.83746
G1 X46.438 Y48.561 E13.87191
G1 X46.778 Y48.044 E13.89907
G1 X47.168 Y47.5 E13.92846
G1 X47.642 Y46.905 E13.96186
G0 F1620 X47.657 Y46.886
G0 X48.057 Y46.467
G0 F4320 X48.364 Y46.782
G1 F1800 X48.842 Y46.317 E13.99114
G1 X49.415 Y45.815 E14.02458
G1 X49.852 Y45.497 E14.04831
G1 X50.408 Y45.123 E14.07773
G1 X51.061 Y44.732 E14.11114
G1 X51.57 Y44.487 E14.13595
G1 X52.183 Y44.221 E14.16528
G1 X52.897 Y43.955 E14.19873
G1 X53.389 Y43.819 E14.22114
G1 X54.035 Y43.665 E14.2503
G1 X54.785 Y43.527 E14.28378
G1 X55.353 Y43.476 E14.30882
G1 X56.027 Y43.442 E14.33845
G1 X56.789 Y43.444 E14.3719
G1 X57.3 Y43.49 E14.39443
G1 X57.959 Y43.573 E14.42359
G1 X58.709 Y43.708 E14.45704
G1 X59.241 Y43.854 E14.48126
G1 X59.883 Y44.057 E14.51083
G1 X60.002 Y44.102 E14.51641
G1 X60.943 Y43.804 E14.55975
G1 X61.586 Y43.654 E14.58873
G1 X62.336 Y43.52 E14.62218
G1 X62.906 Y43.471 E14.6473
G1 X63.59 Y43.44 E14.67736
G1 X64.352 Y43.446 E14.71082
G1 X64.884 Y43.497 E14.73428
G1 X65.54 Y43.585 E14.76334
G1 X66.289 Y43.726 E14.7968
G1 X66.802 Y43.871 E14.82021
G1 X67.432 Y44.074 E14.84927
G1 X68.143 Y44.345 E14.88267
G1 X68.64 Y44.588 E14.90696
G1 X69.234 Y44.907 E14.93656
G1 X69.885 Y45.302 E14.96999
G1 X70.321 Y45.623 E14.99376
G1 X70.841 Y46.037 E15.02294
G1 X71.411 Y46.542 E15.05638
G1 X71.787 Y46.942 E15.08048
G1 X72.228 Y47.447 E15.10991
G1 X72.699 Y48.046 E15.14337
G1 X72.995 Y48.503 E15.16727
G1 X73.338 Y49.078 E15.19667
G1 X73.693 Y49.752 E15.23011
G1 X73.894 Y50.23 E15.25288
G1 X74.128 Y50.849 E15.28193
G1 X74.36 Y51.575 E15.31539
G1 X74.48 Y52.12 E15.33989
G1 X74.601 Y52.787 E15.36966
G1 X74.698 Y53.543 E15.40312
G1 X74.718 Y54.072 E15.42636
G1 X74.719 Y54.738 E15.4556
G1 X74.68 Y55.499 E15.48905
G1 X74.601 Y56.054 E15.51367
G1 X74.482 Y56.705 E15.54272
G1 X74.306 Y57.447 E15.5762
G1 X74.137 Y57.952 E15.59958
G1 X73.899 Y58.586 E15.62931
G1 X73.594 Y59.284 E15.66275
G1 X73.33 Y59.764 E15.6868
G1 X72.988 Y60.335 E15.71603
G1 X72.563 Y60.968 E15.7495
G1 X72.226 Y61.383 E15.77297
G1 X71.789 Y61.883 E15.80212
G1 X71.259 Y62.429 E15.83553
G1 X70.842 Y62.787 E15.85966
G1 X70.319 Y63.203 E15.889
G1 X69.699 Y63.645 E15.92243
G1 X69.486 Y63.769 E15.93325
G1 X69.483 Y66.868 E16.06931
G1 X69.46 Y67.624 E16.10251
G1 X69.393 Y68.383 E16.13597
G1 X69.262 Y69.072 E16.16676
G1 X69.143 Y69.564 E16.18898
G1 X68.925 Y70.294 E16.22243
G1 X68.56 Y71.143 E16.263
G1 X68.325 Y71.606 E16.2858
G1 X67.945 Y72.266 E16.31923
G1 X67.391 Y73.012 E16.36003
G1 X67.059 Y73.404 E16.38258
G1 X66.537 Y73.959 E16.41603
G1 X65.815 Y74.565 E16.45742
G1 X65.394 Y74.874 E16.48034
G1 X64.757 Y75.292 E16.51379
G1 X63.937 Y75.703 E16.55406
G1 X63.471 Y75.901 E16.57629
G1 X62.755 Y76.162 E16.60975
G1 X61.868 Y76.373 E16.64978
G1 X61.353 Y76.462 E16.67272
G1 X60.597 Y76.552 E16.70615
G1 X59.653 Y76.553 E16.74759
G1 X59.138 Y76.52 E16.77025
G1 X58.381 Y76.432 E16.80371
G1 X57.485 Y76.219 E16.84414
G1 X56.993 Y76.069 E16.86673
G1 X56.277 Y75.809 E16.90017
G1 X55.449 Y75.395 E16.94081
G1 X55.002 Y75.134 E16.96354
G1 X54.365 Y74.715 E16.99701
G1 X53.651 Y74.117 E17.0379
G1 X53.28 Y73.763 E17.06041
G1 X52.757 Y73.208 E17.09389
G1 X52.213 Y72.478 E17.13386
G1 X51.931 Y72.046 E17.15651
G1 X51.548 Y71.388 E17.18994
G1 X51.176 Y70.529 E17.23104
G1 X51.001 Y70.041 E17.2538
G1 X50.782 Y69.311 E17.28726
G1 X50.622 Y68.414 E17.32726
G1 X50.565 Y67.915 E17.34931
G1 X50.518 Y67.092 E17.3855
G1 X50.518 Y63.768 E17.53144
G1 X50.026 Y63.45 E17.55716
G1 X49.409 Y63.003 E17.59061
G1 X49.011 Y62.658 E17.61373
